X:1
T:Title
%%score { ( 1 3 ) | ( 2 4 ) }
L:1/8
Q:1/4=72
M:6/8
K:Ab
V:1 treble nm="Grand Piano"
V:3 treble 
V:2 bass 
V:4 bass 
V:1
 [Ec][Ec][Ec] [Ec][DB][CA] | [A,C][CE][CA] [DA] [DG]2 | [Gd][Gd][Gd] [Gd]FG | BA[DF] [CE]3 | %4
w: John~R.~Sweney * * * * *||||
 [Ec][Ec][Ec] [Ec][DB][CA] | ABc [Fe] [Fd]2 | [Fd][Ec][=D_c] [E=c][CA]C | EFG [CA]3 | %8
w: ||||
 B>=AB z A,B, | c>_c=c z[K:bass] C,A, | eee ecA | AGA B3 | [Ec][Ec][Ec] [Ec][DB][CA] | %13
w: |||||
 BAF [DF] [CE]2 | [A,C][B,D][_C=D] [=CE][Ec][CA] | [DB][=DF][_DG] [CA]3 |] %16
w: |||
V:2
 [A,,A,][A,,A,][A,,A,] [A,,A,][A,,E,][A,,E,] | [A,,E,][A,,A,][A,,E,] [B,,E,] [B,,E,]2 | %2
 [E,B,][E,B,][E,B,] [E,B,][E,B,D][E,D] | [A,,E,]2 [A,,A,] [A,,A,]3 | %4
 [A,,A,][A,,A,][A,,A,] [A,,A,][A,,E,][A,,E,] | [A,C][A,DG][A,_G][K:bass] [D,A,] [D,A,]2 | %6
 [A,,A,][A,,A,][A,,A,] [A,,A,][A,,E,][A,,A,] | [E,G,D][E,A,D][E,B,D] [A,,A,]3 | z3 D3 | %9
 [A,E]>[A,=D][A,E] .[A,,E,]2 E, | [A,CA][A,CA][A,CA] [A,CA][A,EA][K:bass][A,CE] | %11
 [F,B,=D][F,B,D][F,A,D] [E,G,E]3 | [A,,A,][A,,A,][A,,A,] [A,,A,][A,,E,][A,,E,] | %13
 [D,F,D][D,F,D][D,A,D] [A,,A,] [A,,A,]2 | [A,,E,][A,,E,][A,,A,] [A,,A,][A,,A,][A,,A,] | %15
 [D,F,][B,,B,][E,B,] [A,,A,]3 |] %16
V:3
 x6 | x6 | x6 | .C3 z3 | x6 | x6 | x6 | x6 | z3 E3 | z3 [CA]3[K:bass] | x6 | x6 | x6 | x6 | x6 | %15
 x6 |] %16
V:4
 x6 | x6 | x6 | x6 | x6 | x3[K:bass] x3 | x6 | x6 | [E,G,D]>[E,_G,C][E,=G,D] [E,G,]F,G, | x6 | %10
 x5[K:bass] x | x6 | x6 | x6 | x6 | x6 |] %16

